src/components/inputs/range/scales.svg

<?xml version="1.0" encoding="UTF-8" standalone="no"?>
<!-- Created with Inkscape (http://www.inkscape.org/) -->
<svg
   xmlns:svg="http://www.w3.org/2000/svg"
   xmlns="http://www.w3.org/2000/svg"
   version="1.0"
   id="svg2174"
   viewBox="0 0 800 800">
  <defs
     id="defs2176" />
  <g
     transform="translate(2.9388092,-178.48279)"
     id="layer1">
    <path
       d="M 157.23577,283.42757 C 142.80496,280.51432 132.65869,286.28847 129.67484,288.43994 C 126.69099,290.59138 144.45158,360.62998 177.91892,489.36217 L 230.88531,693.09744 L 216.45304,701.46847 C 194.08416,714.44296 150.53935,725.25787 120.03434,725.41535 C 88.105805,725.5802 34.612368,713.50813 13.640493,701.40504 L -0.82917818,693.0544 L 54.770938,487.35189 C 85.350931,374.2155 112.45081,296.74943 114.99273,292.40588 C 119.37607,284.91566 121.62397,267.43916 160.81758,267.89055 C 189.67072,268.22288 223.37353,269.44714 275.51263,268.57074 C 328.1729,267.68561 350.9342,260.99679 353.29284,260.99679 C 355.65146,260.99679 358.82726,247.12072 360.35016,237.76084 C 361.87308,228.40091 364.99211,193.22158 367.28126,182.38378 L 385.03628,180.59242 C 387.04385,190.44497 379.98881,225.54724 381.5104,235.79816 L 384.27697,260.65423 C 418.19132,270.83056 449.4592,270.27547 482.76225,270.40345 C 529.9158,270.84855 554.58799,273.96602 581.10752,274.14133 C 614.96088,274.3651 622.54669,284.91173 626.93241,292.40588 C 629.47427,296.74943 656.57408,374.2155 687.15417,487.35189 L 742.7543,693.0544 L 728.28459,701.40504 C 707.31274,713.50813 653.81927,725.5802 621.89076,725.41535 C 591.38572,725.25787 547.84092,714.44296 525.47203,701.46847 L 511.03983,693.09744 L 564.00615,489.36217 C 598.41423,357.01133 615.27497,303.05684 612.12755,300.78744 C 608.98009,298.51802 600.32771,280.29507 587.43305,283.36349 L 157.23577,283.42757 z M 219.65283,682.02024 C 220.6396,671.01744 121.41211,320.02836 117.46936,320.01958 C 113.53311,320.01083 12.792311,672.17429 13.611779,683.2765 C 13.720828,684.7544 54.177889,691.31191 115.06546,690.92531 C 172.45295,690.55717 219.52031,683.49814 219.65283,682.02024 z M 731.40429,682.02024 C 732.22376,670.91802 628.39197,320.01083 624.45575,320.01958 C 620.51294,320.02836 521.2855,671.01744 522.27225,682.02024 C 522.40483,683.49814 569.46909,690.92531 626.85961,690.92531 C 684.25012,690.92531 731.29528,683.49814 731.40429,682.02024 z "
       style="fill:#000000;fill-opacity:1;stroke:#000000;stroke-width:4.21926212;stroke-opacity:1"
       id="path1316" />
    <path
       d="M 523.33994,682.47403 C 575.26879,688.531 598.76039,695.36118 684.69025,687.88662 L 729.2007,683.24726 L 733.52807,680.92757 C 711.40504,667.71524 682.88497,667.5203 653.78024,665.84961 C 608.68376,664.49127 564.43728,664.13297 525.19453,679.76774 L 523.33994,682.47403 z "
       style="fill:#000000;fill-opacity:1;fill-rule:evenodd;stroke:#000000;stroke-width:3.9313817px;stroke-linecap:butt;stroke-linejoin:miter;stroke-opacity:1"
       id="path4106" />
    <path
       d="M 10.233545,683.22893 C 62.162395,689.28589 85.654025,696.11608 171.58389,688.64152 L 216.09433,684.00215 L 220.4217,681.68246 C 198.29867,668.47014 169.77858,668.27519 140.67386,666.60452 C 95.5774,665.24616 51.330928,664.88786 12.088142,680.52263 L 10.233545,683.22893 z "
       style="fill:#000000;fill-opacity:1;fill-rule:evenodd;stroke:#000000;stroke-width:3.9313817px;stroke-linecap:butt;stroke-linejoin:miter;stroke-opacity:1"
       id="path5077" />
  </g>
</svg>

<svg xmlns="http://www.w3.org/2000/svg" version="1.0" viewBox="0 0 800 800"><path d="M157.236 283.428c-14.431-2.914-24.577 2.86-27.561 5.012-2.984 2.151 14.777 72.19 48.244 200.922l52.966 203.735-14.432 8.371c-22.369 12.975-65.914 23.79-96.419 23.947-31.928.165-85.422-11.907-106.394-24.01l-14.47-8.35 55.6-205.703c30.58-113.136 57.68-190.603 60.223-194.946 4.383-7.49 6.631-24.967 45.825-24.515 28.853.332 62.556 1.556 114.695.68 52.66-.885 75.421-7.574 77.78-7.574 2.358 0 5.534-13.876 7.057-23.236 1.523-9.36 4.642-44.54 6.931-55.377l17.755-1.792c2.008 9.853-5.047 44.955-3.526 55.206l2.767 24.856c33.914 10.177 65.182 9.621 98.485 9.75 47.154.445 71.826 3.562 98.346 3.737 33.853.224 41.439 10.77 45.824 18.265 2.542 4.343 29.642 81.81 60.222 194.946l55.6 205.702-14.47 8.351c-20.971 12.103-74.465 24.175-106.393 24.01-30.505-.157-74.05-10.972-96.419-23.947l-14.432-8.37 52.966-203.736c34.408-132.35 51.269-186.305 48.122-188.575-3.148-2.269-11.8-20.492-24.695-17.424l-430.197.065zm62.417 398.592c.987-11.003-98.24-361.992-102.184-362-3.936-.01-104.677 352.154-103.857 363.257.109 1.477 40.566 8.035 101.453 7.648 57.388-.368 104.455-7.427 104.588-8.905zm511.751 0c.82-11.102-103.012-362.01-106.948-362-3.943.008-103.17 350.997-102.184 362 .133 1.478 47.197 8.905 104.588 8.905 57.39 0 104.435-7.427 104.544-8.905z" style="fill:#000;fill-opacity:1;stroke:#000;stroke-width:4.21926212;stroke-opacity:1" transform="translate(2.939 -178.483)"/><path d="M523.34 682.474c51.929 6.057 75.42 12.887 161.35 5.413l44.51-4.64 4.328-2.32c-22.123-13.212-50.643-13.407-79.748-15.077-45.096-1.359-89.343-1.717-128.585 13.918l-1.855 2.706zM10.234 683.229c51.928 6.057 75.42 12.887 161.35 5.413l44.51-4.64 4.328-2.32c-22.123-13.212-50.643-13.407-79.748-15.077-45.097-1.359-89.343-1.717-128.586 13.918l-1.854 2.706z" style="fill:#000;fill-opacity:1;fill-rule:evenodd;stroke:#000;stroke-width:3.9313817px;stroke-linecap:butt;stroke-linejoin:miter;stroke-opacity:1" transform="translate(2.939 -178.483)"/></svg>
